img/truck.svg

<svg width="55" height="40" viewBox="0 0 55 40" fill="none" xmlns="http://www.w3.org/2000/svg">
<path d="M47.1211 32.9352C47.1211 35.7953 45.3516 38.1354 43.1398 38.1354C40.9279 38.1354 39.1584 35.7953 39.1584 32.9352C39.1584 30.075 40.9279 27.7349 43.1398 27.7349C45.3516 27.7349 47.1211 30.075 47.1211 32.9352Z" fill="#FECC00"/>
<path d="M15.3597 32.9352C15.3597 35.7953 13.5902 38.1354 11.3784 38.1354C9.16658 38.1354 7.39706 35.7953 7.39706 32.9352C7.39706 30.075 9.16658 27.7349 11.3784 27.7349C13.5902 27.7349 15.3597 30.075 15.3597 32.9352Z" fill="#FECC00"/>
<path d="M52.3151 16.4674H47.0066L39.6632 8.49362C39.3094 8.06022 38.69 7.80021 38.1591 7.80021H28.427V3.37996C28.427 1.99325 27.2768 0.866455 25.8612 0.866455H7.10485C5.68929 0.866455 4.53906 1.99315 4.53906 3.37996V22.5344H28.4271V32.935H38.1592C38.1592 30.0748 40.548 27.7347 43.4677 27.7347C46.3873 27.7347 48.7761 30.0748 48.7761 32.935H52.0496C52.6689 32.935 53.1998 32.4149 53.1998 31.8083V18.1142C53.1999 17.5941 52.669 16.8141 52.3151 16.4674Z" fill="white"/>
<path d="M30.3117 23.4013H2V3.38019C2 1.47345 3.50409 0 5.45049 0H26.9497C28.8076 0 30.3117 1.47345 30.3117 3.38019V23.4013ZM3.76952 21.6678H28.5422V3.38019C28.5422 2.51351 27.8344 1.73346 26.8612 1.73346H5.45049C4.47724 1.73346 3.76952 2.42687 3.76952 3.38019V21.6678Z" fill="white"/>
<path d="M44.4674 39.0021C41.0169 39.0021 38.2742 36.3153 38.2742 32.9351C38.2742 29.5549 41.0169 26.8682 44.4674 26.8682C47.9178 26.8682 50.6605 29.5549 50.6605 32.9351C50.6605 36.3153 47.9178 39.0021 44.4674 39.0021ZM44.4674 28.6015C41.9901 28.6015 40.0436 30.5083 40.0436 32.9351C40.0436 35.362 41.99 37.2687 44.4674 37.2687C46.9446 37.2687 48.8911 35.362 48.8911 32.9351C48.8911 30.5083 46.9446 28.6015 44.4674 28.6015Z" fill="white"/>
<path d="M12.6173 39.0021C9.16678 39.0021 6.42412 36.3153 6.42412 32.9351C6.42412 29.5549 9.16678 26.8682 12.6173 26.8682C16.0678 26.8682 18.8104 29.5549 18.8104 32.9351C18.8104 36.3153 16.0678 39.0021 12.6173 39.0021ZM12.6173 28.6015C10.14 28.6015 8.19353 30.5083 8.19353 32.9351C8.19353 35.362 10.1399 37.2687 12.6173 37.2687C15.0946 37.2687 17.041 35.362 17.041 32.9351C17.041 30.5083 15.0945 28.6015 12.6173 28.6015Z" fill="white"/>
<path d="M53.7579 23.4013H38.7173C38.1864 23.4013 37.8326 23.0547 37.8326 22.5346C37.8326 22.0146 38.1864 21.668 38.7173 21.668H53.7579C54.2888 21.668 54.6426 22.0146 54.6426 22.5346C54.6426 23.0546 54.2888 23.4013 53.7579 23.4013Z" fill="white"/>
<path d="M16.1558 15.6008H2.88471C2.35386 15.6008 2 15.2541 2 14.7341C2 14.2141 2.35386 13.8674 2.88471 13.8674H16.1558C16.6867 13.8674 17.0405 14.2141 17.0405 14.7341C17.0406 15.254 16.6867 15.6008 16.1558 15.6008Z" fill="white"/>
<path d="M12.6169 11.2671H2.88471C2.35386 11.2671 2 10.9204 2 10.4004C2 9.88034 2.35386 9.53369 2.88471 9.53369H12.6169C13.1477 9.53369 13.5016 9.88034 13.5016 10.4004C13.5016 10.9204 13.1477 11.2671 12.6169 11.2671Z" fill="white"/>
<path d="M50.253 33.8018H46.891V32.9351C46.891 30.5084 44.9446 28.6015 42.4672 28.6015C39.99 28.6015 38.0435 30.5083 38.0435 32.9351V33.8018H26.542V6.93359H37.4243C38.663 6.93359 39.7247 7.45362 40.5209 8.40704L46.3602 15.6008L46.4487 15.6874H50.1646C51.7571 15.6874 52.9958 16.9875 52.9958 18.461V31.0283C53.0842 32.5018 51.7571 33.8018 50.253 33.8018ZM48.572 32.0684H50.1646C50.7839 32.0684 51.2263 31.5483 51.2263 30.9417V18.461C51.2263 17.8543 50.6954 17.4209 50.1646 17.4209H46.4487C45.8294 17.4209 45.2985 17.1609 44.9446 16.7275L39.1053 9.53374C38.7514 8.92707 38.132 8.66706 37.4243 8.66706H28.3115V32.0684H36.3626C36.805 29.1216 39.3707 26.8681 42.4673 26.8681C45.564 26.8681 48.1296 29.1216 48.572 32.0684Z" fill="white"/>
<path d="M30.3117 33.802H17.0406V32.9353C17.0406 30.5086 15.0942 28.6017 12.6169 28.6017C10.1395 28.6017 8.19315 30.5085 8.19315 32.9353V33.802H4.65422C3.15013 33.802 2 32.6753 2 31.2019V21.668H30.3117V33.802ZM18.7216 32.0685H28.5422V23.4014H3.76952V31.2019C3.76952 31.7219 4.12338 32.0685 4.65422 32.0685H6.51218C6.95458 29.1218 9.52026 26.8683 12.6169 26.8683C15.7135 26.8683 18.2792 29.1218 18.7216 32.0685Z" fill="white"/>
<path d="M14.3863 32.9351C14.3863 33.8885 13.59 34.6686 12.6168 34.6686C11.6435 34.6686 10.8472 33.8885 10.8472 32.9351C10.8472 31.9817 11.6435 31.2017 12.6168 31.2017C13.59 31.2017 14.3863 31.9818 14.3863 32.9351Z" fill="white"/>
<path d="M46.2374 32.9351C46.2374 33.8885 45.4411 34.6686 44.4679 34.6686C43.4946 34.6686 42.6983 33.8885 42.6983 32.9351C42.6983 31.9817 43.4946 31.2017 44.4679 31.2017C45.4411 31.2018 46.2374 31.9818 46.2374 32.9351Z" fill="white"/>
<path d="M47.742 14.734H36.2404C34.9132 14.734 33.8516 13.694 33.8516 12.3939V6.93359H39.4254C40.6641 6.93359 41.7258 7.45362 42.5221 8.40704L47.742 14.734ZM35.6211 8.66706V12.3939C35.6211 12.7405 35.8865 13.0006 36.2404 13.0006H44.1146L41.1949 9.447C40.7525 8.92697 40.1333 8.66696 39.4254 8.66696L35.6211 8.66706Z" fill="white"/>
<path d="M44.202 32.9349C44.202 35.7951 42.4686 38.1352 40.3018 38.1352C38.135 38.1352 36.4016 35.7951 36.4016 32.9349C36.4016 30.0747 38.135 27.7346 40.3018 27.7346C42.4686 27.7346 44.202 30.0747 44.202 32.9349Z" fill="#FECC00"/>
<path d="M13.0878 32.9349C13.0878 35.7951 11.3543 38.1352 9.18756 38.1352C7.0208 38.1352 5.28734 35.7951 5.28734 32.9349C5.28734 30.0747 7.0208 27.7346 9.18756 27.7346C11.3543 27.7346 13.0878 30.0747 13.0878 32.9349Z" fill="#FECC00"/>
<path d="M50.2691 16.4674H45.0688L37.875 8.49362C37.5284 8.06022 36.9216 7.80021 36.4016 7.80021H26.8677V3.37996C26.8677 1.99325 25.741 0.866455 24.3541 0.866455H5.97995C4.59324 0.866455 3.46645 1.99315 3.46645 3.37996V22.5344H26.8678V32.935H36.4017C36.4017 30.0748 38.7418 27.7347 41.6019 27.7347C44.4621 27.7347 46.8022 30.0748 46.8022 32.935H50.009C50.6157 32.935 51.1357 32.4149 51.1357 31.8083V18.1142C51.1358 17.5941 50.6158 16.8141 50.2691 16.4674Z" fill="#FED100"/>
<path d="M27.7349 23.4013H0V3.38019C0 1.47345 1.47345 0 3.38019 0H24.4414C26.2615 0 27.7349 1.47345 27.7349 3.38019V23.4013ZM1.73346 21.6678H26.0014V3.38019C26.0014 2.51351 25.308 1.73346 24.3547 1.73346H3.38019C2.42677 1.73346 1.73346 2.42687 1.73346 3.38019V21.6678Z" fill="#333333"/>
<path d="M41.6019 39.0021C38.2217 39.0021 35.535 36.3153 35.535 32.9351C35.535 29.5549 38.2217 26.8682 41.6019 26.8682C44.9821 26.8682 47.6689 29.5549 47.6689 32.9351C47.6689 36.3153 44.9821 39.0021 41.6019 39.0021ZM41.6019 28.6015C39.1752 28.6015 37.2683 30.5083 37.2683 32.9351C37.2683 35.362 39.1751 37.2687 41.6019 37.2687C44.0287 37.2687 45.9355 35.362 45.9355 32.9351C45.9355 30.5083 44.0287 28.6015 41.6019 28.6015Z" fill="#333333"/>
<path d="M10.401 39.0021C7.02081 39.0021 4.33403 36.3153 4.33403 32.9351C4.33403 29.5549 7.02081 26.8682 10.401 26.8682C13.7812 26.8682 16.468 29.5549 16.468 32.9351C16.468 36.3153 13.7812 39.0021 10.401 39.0021ZM10.401 28.6015C7.97423 28.6015 6.06739 30.5083 6.06739 32.9351C6.06739 35.362 7.97413 37.2687 10.401 37.2687C12.8279 37.2687 14.7346 35.362 14.7346 32.9351C14.7346 30.5083 12.8278 28.6015 10.401 28.6015Z" fill="#333333"/>
<path d="M50.7032 23.4013H35.9691C35.449 23.4013 35.1024 23.0547 35.1024 22.5346C35.1024 22.0146 35.449 21.668 35.9691 21.668H50.7032C51.2233 21.668 51.5699 22.0146 51.5699 22.5346C51.5699 23.0546 51.2233 23.4013 50.7032 23.4013Z" fill="#333333"/>
<path d="M13.8674 15.6008H0.866681C0.346652 15.6008 0 15.2541 0 14.7341C0 14.2141 0.346652 13.8674 0.866681 13.8674H13.8674C14.3874 13.8674 14.7341 14.2141 14.7341 14.7341C14.7342 15.254 14.3874 15.6008 13.8674 15.6008Z" fill="#333333"/>
<path d="M10.4006 11.2671H0.866681C0.346652 11.2671 0 10.9204 0 10.4004C0 9.88034 0.346652 9.53369 0.866681 9.53369H10.4006C10.9206 9.53369 11.2673 9.88034 11.2673 10.4004C11.2673 10.9204 10.9206 11.2671 10.4006 11.2671Z" fill="#333333"/>
<path d="M49.2292 33.8021H45.9356V32.9354C45.9356 30.5086 44.0289 28.6018 41.602 28.6018C39.1753 28.6018 37.2684 30.5085 37.2684 32.9354V33.8021H26.0013V6.93384H36.6619C37.8753 6.93384 38.9154 7.45387 39.6954 8.40729L45.4157 15.6011L45.5024 15.6877H49.1426C50.7027 15.6877 51.9161 16.9878 51.9161 18.4612V31.0285C52.0027 32.502 50.7027 33.8021 49.2292 33.8021ZM47.5825 32.0686H49.1426C49.7492 32.0686 50.1826 31.5486 50.1826 30.9419V18.4612C50.1826 17.8545 49.6626 17.4212 49.1426 17.4212H45.5024C44.8957 17.4212 44.3757 17.1611 44.0289 16.7278L38.3086 9.53398C37.9619 8.92732 37.3552 8.6673 36.6619 8.6673H27.7347V32.0686H35.6218C36.0552 29.1218 38.5686 26.8683 41.6021 26.8683C44.6357 26.8683 47.1491 29.1218 47.5825 32.0686Z" fill="#333333"/>
<path d="M27.7349 33.802H14.7342V32.9353C14.7342 30.5086 12.8274 28.6017 10.4006 28.6017C7.97371 28.6017 6.06697 30.5085 6.06697 32.9353V33.802H2.60014C1.1267 33.802 0 32.6753 0 31.2019V21.668H27.7349V33.802ZM16.3809 32.0685H26.0014V23.4014H1.73346V31.2019C1.73346 31.7219 2.08012 32.0685 2.60014 32.0685H4.42025C4.85364 29.1218 7.36704 26.8683 10.4006 26.8683C13.4341 26.8683 15.9475 29.1218 16.3809 32.0685Z" fill="#333333"/>
<path d="M12.1335 32.9351C12.1335 33.8885 11.3535 34.6686 10.4001 34.6686C9.44665 34.6686 8.66661 33.8885 8.66661 32.9351C8.66661 31.9817 9.44665 31.2017 10.4001 31.2017C11.3535 31.2017 12.1335 31.9818 12.1335 32.9351Z" fill="#333333"/>
<path d="M43.3359 32.9351C43.3359 33.8885 42.5559 34.6686 41.6025 34.6686C40.649 34.6686 39.869 33.8885 39.869 32.9351C39.869 31.9817 40.649 31.2017 41.6025 31.2017C42.5559 31.2018 43.3359 31.9818 43.3359 32.9351Z" fill="#333333"/>
<path d="M44.8093 14.7343H33.542C32.242 14.7343 31.2019 13.6942 31.2019 12.3941V6.93384H36.6622C37.8756 6.93384 38.9157 7.45387 39.6957 8.40729L44.8093 14.7343ZM32.9354 8.6673V12.3941C32.9354 12.7408 33.1954 13.0008 33.542 13.0008H41.2558L38.3957 9.44724C37.9623 8.92721 37.3556 8.6672 36.6622 8.6672L32.9354 8.6673Z" fill="#333333"/>
</svg>

<svg width="55" height="40" fill="none" xmlns="http://www.w3.org/2000/svg"><path d="M47.121 32.935c0 2.86-1.77 5.2-3.981 5.2-2.212 0-3.982-2.34-3.982-5.2 0-2.86 1.77-5.2 3.982-5.2s3.981 2.34 3.981 5.2zm-31.761 0c0 2.86-1.77 5.2-3.982 5.2-2.211 0-3.98-2.34-3.98-5.2 0-2.86 1.769-5.2 3.98-5.2 2.212 0 3.982 2.34 3.982 5.2z" fill="#FECC00"/><path d="M52.315 16.467h-5.308l-7.344-7.973C39.31 8.06 38.69 7.8 38.16 7.8h-9.732V3.38c0-1.387-1.15-2.514-2.566-2.514H7.105c-1.416 0-2.566 1.127-2.566 2.514v19.154h23.888v10.401h9.732c0-2.86 2.389-5.2 5.309-5.2 2.92 0 5.308 2.34 5.308 5.2h3.274c.619 0 1.15-.52 1.15-1.127V18.114c0-.52-.531-1.3-.885-1.647z" fill="#fff"/><path d="M30.312 23.401H2V3.381C2 1.472 3.504 0 5.45 0h21.5a3.345 3.345 0 013.362 3.38v20.021zM3.77 21.668h24.772V3.38c0-.866-.708-1.647-1.68-1.647H5.45c-.973 0-1.68.694-1.68 1.647v18.288zm40.697 17.334c-3.45 0-6.193-2.687-6.193-6.067 0-3.38 2.743-6.067 6.193-6.067 3.45 0 6.194 2.687 6.194 6.067 0 3.38-2.743 6.067-6.194 6.067zm0-10.4c-2.477 0-4.423 1.906-4.423 4.333 0 2.427 1.946 4.334 4.423 4.334 2.478 0 4.424-1.907 4.424-4.334 0-2.427-1.946-4.334-4.424-4.334zm-31.85 10.4c-3.45 0-6.193-2.687-6.193-6.067 0-3.38 2.743-6.067 6.193-6.067 3.45 0 6.193 2.687 6.193 6.067 0 3.38-2.742 6.067-6.193 6.067zm0-10.4c-2.477 0-4.423 1.906-4.423 4.333 0 2.427 1.946 4.334 4.423 4.334 2.478 0 4.424-1.907 4.424-4.334 0-2.427-1.947-4.334-4.424-4.334zm41.141-5.201h-15.04c-.532 0-.885-.346-.885-.866s.353-.867.884-.867h15.04c.532 0 .886.347.886.867s-.354.866-.885.866z" fill="#fff"/><path d="M16.156 15.6H2.885c-.531 0-.885-.346-.885-.866s.354-.867.885-.867h13.27c.532 0 .886.347.886.867s-.354.867-.885.867zm-3.539-4.333H2.885c-.531 0-.885-.347-.885-.867s.354-.866.885-.866h9.732c.53 0 .885.346.885.866s-.354.867-.885.867zm37.636 22.535h-3.362v-.867c0-2.427-1.946-4.334-4.424-4.334-2.477 0-4.423 1.907-4.423 4.334v.867H26.541V6.934h10.882c1.239 0 2.3.52 3.097 1.473l5.84 7.194.088.086h3.716c1.592 0 2.83 1.3 2.83 2.774v12.567c.09 1.474-1.238 2.774-2.742 2.774zm-1.681-1.734h1.593c.619 0 1.061-.52 1.061-1.126V18.46c0-.607-.53-1.04-1.061-1.04h-3.716c-.62 0-1.15-.26-1.504-.694l-5.84-7.193c-.354-.607-.973-.867-1.68-.867h-9.113v23.401h8.05c.443-2.946 3.009-5.2 6.105-5.2 3.097 0 5.663 2.254 6.105 5.2z" fill="#fff"/><path d="M30.312 33.802H17.04v-.867c0-2.426-1.947-4.333-4.424-4.333-2.478 0-4.424 1.907-4.424 4.333v.867H4.654C3.15 33.802 2 32.675 2 31.202v-9.534h28.312v12.134zm-11.59-1.733h9.82V23.4H3.77v7.8c0 .52.353.867.884.867h1.858c.443-2.946 3.008-5.2 6.105-5.2 3.096 0 5.662 2.254 6.105 5.2z" fill="#fff"/><path d="M14.386 32.935c0 .953-.796 1.734-1.77 1.734-.973 0-1.769-.78-1.769-1.734 0-.953.796-1.733 1.77-1.733.973 0 1.77.78 1.77 1.733zm31.851 0c0 .953-.796 1.734-1.77 1.734-.972 0-1.769-.78-1.769-1.734 0-.953.797-1.733 1.77-1.733s1.77.78 1.77 1.733zm1.505-18.201H36.24c-1.327 0-2.388-1.04-2.388-2.34v-5.46h5.573c1.24 0 2.3.52 3.097 1.473l5.22 6.327zm-12.12-6.067v3.727c0 .347.264.607.618.607h7.875l-2.92-3.554c-.443-.52-1.062-.78-1.77-.78h-3.804z" fill="#fff"/><path d="M44.202 32.935c0 2.86-1.733 5.2-3.9 5.2s-3.9-2.34-3.9-5.2c0-2.86 1.733-5.2 3.9-5.2s3.9 2.34 3.9 5.2zm-31.114 0c0 2.86-1.734 5.2-3.9 5.2-2.167 0-3.9-2.34-3.9-5.2 0-2.86 1.733-5.2 3.9-5.2 2.166 0 3.9 2.34 3.9 5.2z" fill="#FECC00"/><path d="M50.27 16.467h-5.201l-7.194-7.973c-.347-.434-.953-.694-1.473-.694h-9.534V3.38A2.515 2.515 0 0024.354.866H5.98A2.515 2.515 0 003.466 3.38v19.154h23.402v10.401h9.534c0-2.86 2.34-5.2 5.2-5.2 2.86 0 5.2 2.34 5.2 5.2h3.207c.607 0 1.127-.52 1.127-1.127V18.114c0-.52-.52-1.3-.867-1.647z" fill="#FED100"/><path d="M27.735 23.401H0V3.381C0 1.472 1.473 0 3.38 0h21.061c1.82 0 3.294 1.473 3.294 3.38v20.021zM1.733 21.668h24.268V3.38c0-.866-.693-1.647-1.646-1.647H3.38c-.953 0-1.647.694-1.647 1.647v18.288zm39.869 17.334a6.03 6.03 0 01-6.067-6.067 6.03 6.03 0 016.067-6.067 6.03 6.03 0 016.067 6.067 6.03 6.03 0 01-6.067 6.067zm0-10.4a4.292 4.292 0 00-4.334 4.333 4.291 4.291 0 004.334 4.334 4.291 4.291 0 004.334-4.334 4.292 4.292 0 00-4.334-4.334zm-31.201 10.4a6.03 6.03 0 01-6.067-6.067 6.03 6.03 0 016.067-6.067 6.03 6.03 0 016.067 6.067 6.03 6.03 0 01-6.067 6.067zm0-10.4a4.292 4.292 0 00-4.334 4.333 4.291 4.291 0 004.334 4.334 4.291 4.291 0 004.334-4.334 4.292 4.292 0 00-4.334-4.334zm40.302-5.201H35.97c-.52 0-.867-.346-.867-.866s.347-.867.867-.867h14.734c.52 0 .867.347.867.867s-.347.866-.867.866z" fill="#333"/><path d="M13.867 15.6h-13c-.52 0-.867-.346-.867-.866s.347-.867.867-.867h13c.52 0 .867.347.867.867s-.347.867-.867.867zM10.4 11.267H.868c-.52 0-.867-.347-.867-.867s.347-.866.867-.866H10.4c.52 0 .866.346.866.866s-.346.867-.866.867zm38.83 22.535h-3.294v-.867a4.291 4.291 0 00-4.334-4.333 4.292 4.292 0 00-4.334 4.333v.867H26.001V6.934h10.66c1.214 0 2.254.52 3.034 1.473l5.72 7.194.087.087h3.64c1.56 0 2.774 1.3 2.774 2.773V31.03c.087 1.473-1.213 2.773-2.687 2.773zm-1.647-1.733h1.56c.606 0 1.04-.52 1.04-1.127v-12.48c0-.607-.52-1.04-1.04-1.04h-3.64c-.607 0-1.127-.26-1.474-.694l-5.72-7.194c-.347-.607-.954-.867-1.647-.867h-8.927V32.07h7.887c.433-2.947 2.947-5.2 5.98-5.2 3.034 0 5.547 2.253 5.98 5.2z" fill="#333"/><path d="M27.735 33.802h-13v-.867a4.292 4.292 0 00-4.334-4.333 4.291 4.291 0 00-4.334 4.333v.867H2.6c-1.473 0-2.6-1.127-2.6-2.6v-9.534h27.735v12.134zM16.38 32.069H26V23.4H1.733v7.8c0 .52.347.867.867.867h1.82c.434-2.946 2.947-5.2 5.98-5.2 3.034 0 5.547 2.254 5.98 5.2z" fill="#333"/><path d="M12.133 32.935a1.74 1.74 0 01-1.733 1.734c-.953 0-1.733-.78-1.733-1.734 0-.953.78-1.733 1.733-1.733.954 0 1.733.78 1.733 1.733zm31.203 0a1.74 1.74 0 01-1.733 1.734c-.954 0-1.734-.78-1.734-1.734 0-.953.78-1.733 1.733-1.733.954 0 1.734.78 1.734 1.733zm1.474-18.201H33.541a2.33 2.33 0 01-2.34-2.34v-5.46h5.46c1.214 0 2.254.52 3.034 1.473l5.113 6.327zM32.934 8.667v3.727c0 .347.26.607.607.607h7.714l-2.86-3.554c-.434-.52-1.04-.78-1.734-.78h-3.727z" fill="#333"/></svg>
